!!!OTL: Winterrosen Es wollt ein Maedchen Wasser holen,
!!!ARE: Europa, Mitteleuropa, Deutschland (BRD), Hessen, Kurhessen, Lenderode
!!!YOR: 7, S. 61
!!    1931 aufgezeichnet
!!!SCT: Q0145E
!!!YEM: Copyright 1995, estate of Helmut Schaffrath.
**kern
*ICvox
*Ivox
!! Mixed meters:  2/4; 3/4
*M3/4
*k[b-]
*F:
{8c
=1
8f
8f
8a
8a
=2
8f
8f
8a
8a}
=3
{8g
8g
8b-
8e
=4
4g
4f}
=5
{4cc
=6
8dd
8dd
4g
4b-
=7
*M2/4
8cc
8cc
4f}
=8
{4a
=9
*M3/4
8g
8g
4b-
4e
=10
4g
8f}
==
!!!AGN: Ballade, Verfuehrung, verlorene Ehre
!!!ONB: ESAC (Essen Associative Code) Database: BALLADE
!!!AMT: irregular
!!!AIN: vox
!!!EED: Helmut Schaffrath
!!!EEV: 1.0
*-
